data/styles/clear/style-night/symbols/information-m.svg

<svg height="24" viewBox="0 0 24 24" width="24"><g fill="none" fill-rule="evenodd"><circle cx="12" cy="12" fill="#fff" opacity=".4" r="12"/><circle cx="12" cy="12" fill="#3d3d36" r="11"/><path d="m10.0508302 10.6363636v-.4010695c.3219256-.1604281.5478355-.2272724.8302271-.29679143.2823915-.06951906.5817221-.13101577.8980006-.18449198.3162786-.0534762.6297285-.09893029.9403592-.13636363.3106308-.03743334.5845465-.05614973.8217554-.05614973l.3049813.19251336-1.5249068 6.99465241h1.1860387v.5454545c-.1468436.0962572-.3190999.1871654-.516774.2727273s-.4066407.1604275-.6269061.224599c-.2202655.0641714-.4433514.114973-.6692647.1524064-.2259132.0374333-.4405276.0561497-.6438495.0561497-.4292352 0-.6410249-.0775393-.804812-.2326203s-.2456794-.3235285-.2456794-.5053476c0-.2139048.0169432-.4224589.0508302-.6256685.033887-.2032095.079069-.4278062.1355473-.6737968l1.0674348-5.0534759zm2.6414775-2.22994649c-.6372516 0-1.1538462-.53869482-1.1538462-1.20320855 0-.66451374.5165946-1.20320856 1.1538462-1.20320856s1.1538461.53869482 1.1538461 1.20320856c0 .66451373-.5165945 1.20320855-1.1538461 1.20320855z" fill="#fff" opacity=".6"/></g></svg>

<svg width="24" height="24" viewBox="0 0 24 24">
  <g fill="none" fill-rule="evenodd">
    <circle cx="12" cy="12" r="12" fill="#FFF" opacity=".4"/>
    <circle cx="12" cy="12" r="11" fill="#3D3C36"/>
    <path fill="#FFF" d="M10.0508302,10.6363636 L10.0508302,10.2352941 C10.3727558,10.074866 10.5986657,10.0080217 10.8810573,9.93850267 C11.1634488,9.86898361 11.4627794,9.8074869 11.7790579,9.75401069 C12.0953365,9.70053449 12.4087864,9.6550804 12.7194171,9.61764706 C13.0300479,9.58021372 13.3039636,9.56149733 13.5411725,9.56149733 L13.8461538,9.75401069 L12.321247,16.7486631 L13.5072857,16.7486631 L13.5072857,17.2941176 C13.3604421,17.3903748 13.1881858,17.481283 12.9905117,17.5668449 C12.7928376,17.6524068 12.583871,17.7272724 12.3636056,17.7914439 C12.1433401,17.8556153 11.9202542,17.9064169 11.6943409,17.9438503 C11.4684277,17.9812836 11.2538133,18 11.0504914,18 C10.6212562,18 10.4094665,17.9224607 10.2456794,17.7673797 C10.0818923,17.6122987 10,17.4438512 10,17.2620321 C10,17.0481273 10.0169432,16.8395732 10.0508302,16.6363636 C10.0847172,16.4331541 10.1298992,16.2085574 10.1863775,15.9625668 L11.2538123,10.9090909 L10.0508302,10.6363636 Z M12.6923077,8.40641711 C12.0550561,8.40641711 11.5384615,7.86772229 11.5384615,7.20320856 C11.5384615,6.53869482 12.0550561,6 12.6923077,6 C13.3295593,6 13.8461538,6.53869482 13.8461538,7.20320856 C13.8461538,7.86772229 13.3295593,8.40641711 12.6923077,8.40641711 Z" opacity=".6"/>
  </g>
</svg>
